src/actions/symbolic/builder-plugin-symbolic.svg

<svg width="16px" height="16px" version="1.1" viewBox="0 0 16 16" xmlns="http://www.w3.org/2000/svg">
 <path d="m7 0c-1.108 0-2 0.892-2 2v1h-2.1543c-1.0228 0-1.8457 0.82293-1.8457 1.8457v3.1543h2c0.554 0 1 0.446 1 1s-0.446 1-1 1h-2v3.1543c0 1.0228 0.82293 1.8457 1.8457 1.8457h3.1543v-2c0-0.554 0.446-1 1-1s1 0.446 1 1v2h3.1543c1.0228 0 1.8457-0.82293 1.8457-1.8457v-2.1543h1c1.108 0 2-0.892 2-2s-0.892-2-2-2h-1v-2.1543c0-1.0228-0.82293-1.8457-1.8457-1.8457h-2.1543v-1c0-1.108-0.892-2-2-2zm0 1c0.554 0 1 0.446 1 1v2h3c0.554 0 1 0.446 1 1v3h2c0.554 0 1 0.446 1 1s-0.446 1-1 1h-2v3c0 0.554-0.446 1-1 1h-2v-1c0-1.108-0.892-2-2-2s-2 0.892-2 2v1h-2c-0.554 0-1-0.446-1-1v-2h1c1.108 0 2-0.892 2-2s-0.892-2-2-2h-1v-2c0-0.554 0.446-1 1-1h3v-2c0-0.554 0.446-1 1-1z" fill="#363636"/>
</svg>

<svg xmlns="http://www.w3.org/2000/svg" width="16" height="16">
    <path fill="#050505" fill-opacity=".7" d="M7 0C5.892 0 5 .892 5 2v1H2.846A1.841 1.841 0 0 0 1 4.846V8h2c.554 0 1 .446 1 1s-.446 1-1 1H1v3.154C1 14.177 1.823 15 2.846 15H6v-2c0-.554.446-1 1-1s1 .446 1 1v2h3.154A1.841 1.841 0 0 0 13 13.154V11h1c1.108 0 2-.892 2-2s-.892-2-2-2h-1V4.846A1.841 1.841 0 0 0 11.154 3H9V2c0-1.108-.892-2-2-2zm0 1c.554 0 1 .446 1 1v2h3c.554 0 1 .446 1 1v3h2c.554 0 1 .446 1 1s-.446 1-1 1h-2v3c0 .554-.446 1-1 1H9v-1c0-1.108-.892-2-2-2s-2 .892-2 2v1H3c-.554 0-1-.446-1-1v-2h1c1.108 0 2-.892 2-2s-.892-2-2-2H2V5c0-.554.446-1 1-1h3V2c0-.554.446-1 1-1z"/>
</svg>
